X: 1
T: Breezy Point
C: Jane Rothfield
O: In the Moment
N: \251 Jane Rothfield (518)522-7445 www.janerothfield.com
R: reel
Z: 2020 John Chambers <jc:trillian.mit.edu>
S: https://www.facebook.com/groups/Fiddletuneoftheday/ 2020-10-17
S: https://www.facebook.com/groups/Fiddletuneoftheday/photos/
M: C
L: 1/8
K: G
ef |\
g3a gedB | A3B ABc2 | efga ged2 | ee2e e3e- |
efga gedB | A3B A2ef | gfga ged2 | edfd g2 :|
|: zA |\
BAGA Bcd2 | e2gg eg2A | BAGB AGED | EGAB A3(A |
B)AGA Bcd2 | e2gg eg2A | BAGB AGED | EG2A G2 :|
